Origami/22x22/apps/distributor-logo-lubuntu.svg

<svg width="22" height="22" version="1" xmlns="http://www.w3.org/2000/svg">
 <circle cx="11" cy="11.5" r="10" style="opacity:.2"/>
 <circle cx="11" cy="11" r="10" style="fill:#0068c8"/>
 <path d="m13.475 3.6406c-0.307-0.01-1.987 0.4794-2.479 1.1094-1.359 0.1008-6.4282 3.4944-9.9823 5.977a10 10 0 0 0 -0.0137 0.273 10 10 0 0 0 0.043 0.855c1.3194-0.481 2.6419-0.916 3.2441-0.916 0.149 0 0.2567 0.03 0.3067 0.09 0.2889 0.34-0.9419 1.992-2.2129 3.862-0.1176 0.171-0.2323 0.346-0.3497 0.519a10 10 0 0 0 0.3614 0.654c1.6018-1.994 3.3478-4.095 3.8808-4.183 0.031 0 0.062 0 0.084 0.01 0.0965 0.116-1.5269 2.734-3.1465 5.377a10 10 0 0 0 0.6778 0.757c0.7049-0.975 1.4266-1.976 2.1445-2.964 1.91-2.64 3.5978-5.102 4.4218-5.122h0.076c2.342 0.019 4.621 5.421 5.987 9.393a10 10 0 0 0 0.709 -0.506c-0.702-4.482-2.16-10.863-4.985-12.7459 0.329-0.22 0.356-1.3399 0.356-1.3399z" style="fill:#ffffff"/>
 <path d="M 11,1 A 10,10 0 0 0 1,11 10,10 0 0 0 1.0098,11.293 10,10 0 0 1 11,1.5 10,10 0 0 1 20.99,11.207 10,10 0 0 0 21,11 10,10 0 0 0 11,1 Z" style="fill:#ffffff;opacity:.1"/>
</svg>

<svg xmlns="http://www.w3.org/2000/svg" width="22" height="22" version="1">
 <circle style="opacity:0.2" cx="11" cy="11.5" r="10"/>
 <circle style="fill:#0068c8" cx="11" cy="11" r="10"/>
 <path style="fill:#ffffff" d="M 13.475,3.6406 C 13.168,3.6306 11.488,4.12 10.996,4.75 9.637,4.8508 4.5678,8.2444 1.0137,10.727 A 10,10 0 0 0 1,11 10,10 0 0 0 1.043,11.855 C 2.3624,11.374 3.6849,10.939 4.2871,10.939 4.4361,10.939 4.5438,10.969 4.5938,11.029 4.8827,11.369 3.6519,13.021 2.3809,14.891 2.2633,15.062 2.1486,15.237 2.0312,15.41 A 10,10 0 0 0 2.3926,16.064 C 3.9944,14.07 5.7404,11.969 6.2734,11.881 6.3044,11.881 6.3354,11.881 6.3574,11.891 6.4539,12.007 4.8305,14.625 3.2109,17.268 A 10,10 0 0 0 3.8887,18.025 C 4.5936,17.05 5.3153,16.049 6.0332,15.061 7.9432,12.421 9.631,9.959 10.455,9.939 H 10.531 C 12.873,9.958 15.152,15.36 16.518,19.332 A 10,10 0 0 0 17.227,18.826 C 16.525,14.344 15.067,7.963 12.242,6.0801 12.571,5.8601 12.598,4.7402 12.598,4.7402 Z"/>
 <path style="opacity:0.1;fill:#ffffff" d="M 11,1 A 10,10 0 0 0 1,11 10,10 0 0 0 1.0098,11.293 10,10 0 0 1 11,1.5 10,10 0 0 1 20.99,11.207 10,10 0 0 0 21,11 10,10 0 0 0 11,1 Z"/>
</svg>
